material/.icons/material/head.svg

<svg xmlns="http://www.w3.org/2000/svg" viewBox="0 0 24 24"><path d="M13 3C9.2 3 6.2 5.9 6 9.7l-1.9 2.5c-.2.3 0 .8.4.8H6v3c0 1.1.9 2 2 2h1v3h7v-4.7c2.4-1.1 4-3.5 4-6.3 0-3.9-3.1-7-7-7"/></svg>

<?xml version="1.0" encoding="UTF-8"?><!DOCTYPE svg PUBLIC "-//W3C//DTD SVG 1.1//EN" "http://www.w3.org/Graphics/SVG/1.1/DTD/svg11.dtd"><svg xmlns="http://www.w3.org/2000/svg" xmlns:xlink="http://www.w3.org/1999/xlink" version="1.1" id="mdi-head" width="24" height="24" viewBox="0 0 24 24"><path d="M13 3C9.2 3 6.2 5.9 6 9.7L4.1 12.2C3.9 12.5 4.1 13 4.5 13H6V16C6 17.1 6.9 18 8 18H9V21H16V16.3C18.4 15.2 20 12.8 20 10C20 6.1 16.9 3 13 3" /></svg>
